X:10
T: Joe Kelly's Retreat
C: BB
R: jig
Q: 1/8=320
M: 6/8
L: 1/8
K: D
"D"afd "G"gfg | "Em"efd "Bm"BAF | "D"DFA dcd | "D"DFA "C"=cBc |
"D"aba "G"gfe | "D"def dcB | "A"AGE "A7"cAG | "D"FDD "D"D3 :|
"D"A,DF "G"B,DG | "C"=CDE "D"FDD | "D"FAd "G"GBd | "Am7"AGA "C"=c2 e |
"D"aba "G"gfe | "D"def "Bm"dcB | "A7"AGE cAG | "D"FDD D3 :|
